X: 1
T: Battle Of Yellow Ford, The
M: 4/4
L: 1/8
R: reel
K: Emin
|&quot;Fiddle#1  Em&quot;B2 E2 E2 GA| B2 BA G2 A2|B2 E2 E2 FE| &quot;D&quot;D2 DE F2 A2|
&quot;Em&quot; B2 E2 E2 GA|B2 BA G2 A2|BABc dcBA|&quot;D&quot;((4FGFE D2) &quot;Em&quot;E2 z2:||
&quot;Em&quot;B2 e2 e2 de|&quot;D&quot;f2 fe &quot;Em&quot;d2 B2|&quot;D&quot; A2 F2 d2 D2|AGFE DEFG|
&quot;Em&quot;B2 e2 e2 de|&quot;D&quot;f2 fe &quot;Em&quot;d2 B2|&quot;D&quot;DEFG AGFE|((4FGFE D2) &quot;Em&quot;E2 z2:|]
&quot;Fiddle #2&quot;|:e2 B2 B2 Bd|e2 ed e2 f2|e2 B2B2 dB| A2 AF A2 d2|
e2 B2B2 Bd|e2 ed e2 f2|edef gfed|((4cdcB) A2 B2z2:|
|:e2 g2 g2 ga|b2 ba g2 e2|d2 A2 f2 A2|dBAG FGAB|
e2 g2 g2 ga|b2 ba g2 e2|FGAB dcBA|((4cdcB) A2 B2:|
